X:1
T:Olivarius, LM
T:Peter Christian Lutkin, 1905
T:Olivarius, LM
T:Public Domain
C:Peter Christian Lutkin, 1905
Z:Public Domain
%%score ( 1 2 ) ( 3 4 )
L:1/8
M:4/4
K:C
V:1 treble 
V:2 treble 
V:3 bass 
V:4 bass 
V:1
 G2 | G2 (Ac) [Ed]2 E2 | [DA]3 [DG] [DG]2 [DG]2 | G2 [Gc]2 [EB]2 [EA]2 | [^FA]3 [FB] G2 G2 | %5
 [Ge]2 [Fd]2 [Ec]2 G2 | [^Gc]3 [GB] [GB]2 [GB]2 | [EA]2 (B^c) [Ae]2 [Ad]2 | [Gc]3 [FB] [Ec]2 |] %9
V:2
 G2 | G2 F2 x E2 x | x8 | G2 x6 | x4 G2 G2 | x6 G2 | x8 | x2 A2 x4 | x6 |] %9
V:3
 G,2 | [G,E]2 [G,D]2 [G,C]2 [G,C]2 | [F,B,]3 [F,B,] [F,B,]2 [F,B,]2 | %3
 [E,C]2 [E,G,]2 [C,D]2 [C,C]2 | [D,C]3 [D,D] [G,B,]2 G,2 | G,2 (A,B,) [C,C]2 [C,E]2 | %6
 [E,E]3 [E,D] [D,D]2 [D,D]2 | [A,^C]2 (DE) [F,A,]2 [F,F]2 | [G,E]3 [G,D] [C,C]2 |] %9
V:4
 G,2 | x8 | x8 | x8 | x6 G,2 | G,2 G,2 x4 | x8 | x2 G,2 x4 | x6 |] %9

